X:1
T:Vanderbilt, SM
T:Vanderbilt, SM
T:Zimri Mullen Parvin, 1875
T:Public Domain Courtesy of the Cyber Hymnal™
C:Zimri Mullen Parvin, 1875
Z:Public Domain
Z:Courtesy of the Cyber Hymnal™
%%score ( 1 2 ) ( 3 4 )
L:1/8
Q:1/4=115
M:3/4
K:F
V:1 treble 
V:2 treble 
V:3 bass 
V:4 bass 
V:1
 (cB) | ([FA]2 [CG]2) [CF]2 | (G2 c2) [EB]2 | [FA]4 (AG) | (F2 [_EA]2) [DB]2 | (A2 F2) [CE]2 | %6
 [CF]4 (cB) | ([FA]2 [CG]2) [CF]2 | (G2 c2) [EB]2 | ([FA]2 [DF]2) [FA]2 | [FB]4 [DG]2 | %11
 (F2 E2) [CF]2 | [CG]4 [CE]2 | [CF]4 |] %14
V:2
 F2 | x6 | E4 x2 | x4 E2 | F2 x4 | C4 x2 | x4 F2 | x6 | E4 x2 | x6 | x6 | C4 x2 | x6 | x4 |] %14
V:3
 (A,G,) | (F,2 B,2) [F,A,]2 | (C2 G,2) [C,C]2 | [F,C]4 (CB,) | ([D,A,]2 [C,F,]2) [B,,F,]2 | %5
 (F,2 A,2) [C,B,]2 | [F,A,]4 (A,G,) | (F,2 B,2) [F,A,]2 | (C2 G,2) [C,C]2 | (C2 A,2) [_E,C]2 | %10
 [D,B,]4 [B,,B,]2 | (A,2 G,2) [C,A,]2 | [C,B,]4 (G,B,) | [F,,F,A,]4 |] %14
V:4
 F,2 | F,4 x2 | C,4 x2 | x4 C,2 | x6 | C,4 x2 | x4 F,2 | F,4 x2 | C,4 x2 | F,4 x2 | x6 | C,4 x2 | %12
 x4 C,2 | x4 |] %14

